X:993
T:Sandy MacIntyre's March
C:Donald Angus Beaton
S:Album-The Beaton Family, Cape Breton Fiddle & Piano Music (2000)
Z:Nigel Gatherer
L:1/8
M:4/4
K:A
A<F | E2 E>F A2 A>B | c>BA<c e2 e<a | f2 f<a f>ec<f | e>cB<A B2 B<e |
E2 E>F A2 A>B | c>BA<c e2 e<a | f2 f<a f>ec<B | c2 A2 A2 :|
c>d | e2 e>f e>dc<d | e>dc<d e2 e<a | f2 f<a f>ef<g a>fe<d c2 c<a |
e2 e>f e>dc<d | e>dc<d e2 e<a | f2 f<a f>ec<B | c2 A2 A2 :|
f>g | a>ba<g f2 e>f | e>dc<d e2 f>g | a>ba<g f2 e>f | e<cA<c B2 f>g |
a>ba<g f2 e>f | e>dc<d e2 f<a | f2 f<a f>ec<B | c2 A2 A2 :|
<end>
<start>
